X: 1850
T: Arie
R: jig
M: 6/8
K: Eminor
G|:EBB BAG|FAA AGF|EBB BAG|FGE F2G|
EBB BAG|Acc cBA|efe dBA|GFD E2B:|
|:ebb geB|daa fdB|ebb ged|Bff f2g|
bge Beg|afd Adf|gag feB|1 AFD E2B:|2 AFD E3||

